src/topics/icons/copyleft-pirate.svg

<svg height="256" preserveAspectRatio="xMidYMid" viewBox="0 0 256 256" width="256" xmlns="http://www.w3.org/2000/svg"><circle cx="128" cy="128" r="114.585153"/><g fill="#fff"><path d="m128 239.231441c61.431429 0 111.231441-49.800012 111.231441-111.231441 0-61.4314286-49.800012-111.231441-111.231441-111.231441-61.4314286 0-111.231441 49.8000124-111.231441 111.231441 0 61.431429 49.8000124 111.231441 111.231441 111.231441zm0 16.768559c-70.692448 0-128-57.307552-128-128s57.307552-128 128-128 128 57.307552 128 128-57.307552 128-128 128z"/><path d="m215.498929 92.9637888c-5.762082 8.0669152-12.010484 14.9022802-18.822801 23.0483282l-9.219331 10.371747c-7.682776 7.298638-26.889716 21.511773-35.724909 27.273855-4.993804 3.457249-10.371747 6.146221-15.74969 8.451054l-7.014375 3.395787c1.152416 1.152416 3.295911 1.782788 5.235428 2.688971 1.152416 0 5.236196-2.24337 6.388612-3.011648l12.292442-6.914498c2.304833-1.536555 4.609665-3.457249 7.298637-3.841388-1.152416 2.688971-3.841388 4.225527-6.53036 5.762082l-7.298637 4.225527s-7.663953 4.367658-8.712268 5.09368c2.100855.82974 5.255019 1.782788 7.255998 2.589096 1.920694 0 4.529381-1.920694 6.065936-2.688972 4.225527-2.304833 9.60347-5.762082 13.828997-8.835192l6.914498-4.609666c5.377943-4.225527 10.755886-8.835192 15.749691-13.828997 3.841388-3.457249 7.682776-6.914498 10.755886-11.140025 4.225527-4.993804 6.914499-10.755886 9.987609-16.517968 3.457249-5.377944 4.609666-8.835193 6.53036-14.5972748.384138-1.920694 1.536555-4.9938044.768277-6.9144984zm-176.3197091-1.920694c-1.1524164 4.2255268.3841388 9.2193312 1.920694 13.0607192 3.4572492 9.219331 9.2193312 17.286246 14.9814132 24.969022 3.4572492 4.993804 9.2193312 11.140025 13.444858 15.365552l4.6096656 3.841388 9.9876088 8.835192c8.0669148 6.146221 23.0483285 15.365552 32.2676595 19.591079l12.292441 5.377943 4.993805 1.920694c5.762082 2.304833 11.524164 3.841388 17.670385 4.993805 3.457249.768277 7.298637 1.920694 10.755886 1.920694-1.152416-4.225527-3.457249-3.841388-6.914498-4.993805l-12.676581-4.993804c-17.670385-7.298637-37.261463-14.597274-51.0904603-28.426271 2.6889716 0 4.6096656 2.304833 6.5303596 3.841388 2.6889717 1.920694 6.1462207 4.225527 9.2193317 6.146221 8.451053 4.993804 27.657993 13.828996 37.261463 17.286246 3.841388 1.536555 10.371748 4.225526 14.213136 4.225526 3.07311.384139 7.298637-1.536555 9.60347-3.07311-1.536555-1.536555-3.073111-1.152416-5.377943-1.536555l-11.908303-3.457249c-10.371748-2.688972-20.359357-6.53036-29.962827-11.524164l-5.377943-2.304833-7.298637-4.609666-8.8351925-5.762082-9.2193312-7.298637-15.7496908-12.292442-14.5972744-14.981413-7.2986372-8.451053-7.682776-8.451054zm123.3085551 94.8822832c.768277 1.536556 2.304833 3.841388 2.304833 5.762082 0 4.225527-4.993805 8.066915-8.835193 7.682776-1.536555-.384138-4.993804-2.304832-6.146221 0-.384138.768278-.384138 1.536556 0 1.920694 0 1.536556 1.920694 2.304833 3.45725 3.073111 4.225526 1.152416 8.835192-.384139 12.292441-2.688972 2.688972-1.536555 4.609666-4.225527 5.377943-7.298637l.768278-4.993804c.384139-1.536556 1.920694-1.920694 3.841388-4.609666 2.304833-3.07311 4.609666-8.451054 7.682776-10.755886 1.152416-.768278 2.304833-1.152417 3.841388-1.536556-.768278-1.152416-1.536555-1.920694-2.304833-3.07311-.768277-.384139-1.536555-1.152416-2.304833-1.152416-1.152416-.384139-2.688971-.384139-3.841388.384138-5.377943 2.688972-4.225526 7.682776-7.298637 11.524164-2.304833 3.073111-4.993804 4.609666-8.835192 5.762082zm12.292441 4.993805c2.688972 1.152416 4.993805.768277 7.682776.768277l5.762082.384139c2.688972 0 3.45725-1.536555 4.609666-3.841388.384139-.768277.768278-2.304833 0-3.07311-.768278-.768278-2.304833-.768278-3.457249-.768278l-6.53036.384139c-1.152416 0-3.07311 0-4.225527.384139-1.920694 1.152416-3.457249 3.841388-3.841388 5.762082zm20.743496 5.377943c-1.920694-.768278-3.073111-1.536555-4.225527-3.07311-.384139.384138-.768278.384138-1.152417.768277-.384138 1.920694 4.609666 6.53036 5.377944 2.304833zm-2.688972-13.060719 3.07311 1.920694c-.768277 1.536555-2.688971 4.609665-2.304832 6.530359.384138 3.841388 5.762082 3.841388 8.066914 1.536556 2.688972-3.073111 2.688972-7.682776-1.152416-9.987609-2.304833-1.152417-4.993804-.768278-7.682776 0zm-137.9058293 10.755886.3841388.384139c3.0731104-.768278 4.9938044-1.920694 5.3779432-4.993804-2.3048328.384138-4.6096656 2.688971-5.762082 4.609665zm2.6889716-14.213135c-1.1524164-.768278-2.3048328-1.152417-3.841388-1.152417-1.1524164 0-2.3048328 0-3.4572492.384139-3.841388 1.536555-4.2255268 7.682776-1.1524164 10.371748 1.5365552 1.536555 5.3779432 2.304832 6.9144984.384138 1.5365552-1.536555 1.1524164-3.457249.3841388-5.377943-.3841388-1.152416-1.1524164-2.688971-.3841388-3.457249.3841388-.768278 1.1524164-.768278 1.5365552-1.152416zm-.3841388 1.536555c.3841388 1.152416 2.3048328 5.762082 3.0731104 6.530359 1.1524164.768278 2.3048328.768278 3.4572492.768278l6.9144984-.384139h4.9938044c0-1.152416 0-2.304833-.3841388-3.07311-1.1524164-3.073111-5.3779432-4.609666-8.4510536-4.609666l-3.4572492.384139c-2.3048328 0-4.2255268-.384139-6.1462208.384139zm7.2986372-12.292442c7.2986372 1.920694 7.2986372 8.066915 10.3717476 12.292442 1.1524164 1.536555 4.2255268 3.841388 4.6096656 5.377943.3841388 1.152416 0 1.536555.3841388 4.225527.7682776 3.457249 3.0731104 6.914498 6.1462208 8.835192 3.4572492 2.304833 6.5303596 3.841388 10.7558864 2.688972 2.3048328-.768278 4.6096661-2.304833 3.4572491-4.993805-1.1524163-2.688971-5.3779431 0-8.0669147-.768277-2.6889716-1.152417-5.762082-4.993805-5.762082-8.066915l1.5365552-5.377943c-4.2255268-1.536555-9.2193312-4.993805-11.1400252-9.219331-1.1524164-2.688972-1.1524164-6.53036-3.0731104-8.451054-3.4572492-2.688972-8.0669148-.384139-9.2193312 3.457249zm18.4386624 8.835193c1.1524164 1.536555 1.920694 1.920694 3.4572492 2.688971 5.3779432 3.073111 8.8351924.768278 14.2131357-.384139l11.140025-3.457249c-1.475093-.991078-4.771004-3.053903-6.146221-3.841388l-7.2986369 1.920694zm5.3779432 11.140025c9.9876088 0 19.2069397-3.073111 28.8104097-5.377943 0 0 4.225527-1.999827 5.637621-1.999827-1.332961-.971487-6.769294-2.934052-7.619777-3.700793-1.152416.341883-5.70062 1.859232-7.237175 2.24337l-9.6034699 2.688972-4.6096656 1.152416c-2.6889716 1.152417-4.6096656 1.536556-5.3779432 4.993805z" stroke="#000"/><path d="m128.803588 136.09668c24.986438 0 45.241948-20.25551 45.241948-45.2419476 0-24.9864375-20.25551-45.2419472-45.241948-45.2419472-24.986437 0-45.2419468 20.2555097-45.2419468 45.2419472 0 24.9864376 20.2555098 45.2419476 45.2419468 45.2419476zm0-7.682776c-20.743357 0-37.5591708-16.815814-37.5591708-37.5591716 0-20.7433575 16.8158138-37.5591712 37.5591708-37.5591712 20.743358 0 37.559172 16.8158137 37.559172 37.5591712 0 20.7433576-16.815814 37.5591716-37.559172 37.5591716zm-.338042-63.4343771c-12.261326 0-22.534734 8.5397897-25.198737 19.9944246h12.364276c2.231078-4.8585876 7.14114-8.2328628 12.834461-8.2328628 7.791103 0 14.114028 6.3229247 14.114028 14.1136437s-6.322925 14.1140276-14.114028 14.1140276c-5.693321 0-10.603767-3.374659-12.834461-8.2332467h-12.364276c2.664003 11.4546347 12.937411 19.9944247 25.198737 19.9944247 14.283433 0 25.875206-11.592157 25.875206-25.8752056 0-14.2830489-11.592157-25.8752055-25.875206-25.8752055z"/></g></svg>

<?xml version="1.0" encoding="UTF-8" standalone="no"?>
<svg width="256px" height="256px" viewBox="0 0 256 256" version="1.1" xmlns="http://www.w3.org/2000/svg" xmlns:xlink="http://www.w3.org/1999/xlink" preserveAspectRatio="xMidYMid">
	<g>
		<circle fill="#000000" cx="128" cy="128" r="114.585153"></circle>
		<path d="M128,239.231441 C189.431429,239.231441 239.231441,189.431429 239.231441,128 C239.231441,66.5685714 189.431429,16.768559 128,16.768559 C66.5685714,16.768559 16.768559,66.5685714 16.768559,128 C16.768559,189.431429 66.5685714,239.231441 128,239.231441 L128,239.231441 Z M128,256 L128,256 C57.307552,256 0,198.692448 0,128 C0,57.307552 57.307552,0 128,0 C198.692448,0 256,57.307552 256,128 C256,198.692448 198.692448,256 128,256 L128,256 Z" fill="#FFFFFF"></path>
		<path d="M215.498929,92.9637888 C209.736847,101.030704 203.488445,107.866069 196.676128,116.012117 L187.456797,126.383864 C179.774021,133.682502 160.567081,147.895637 151.731888,153.657719 C146.738084,157.114968 141.360141,159.80394 135.982198,162.108773 L128.967823,165.50456 C130.120239,166.656976 132.263734,167.287348 134.203251,168.193531 C135.355667,168.193531 139.439447,165.950161 140.591863,165.181883 L152.884305,158.267385 C155.189138,156.73083 157.49397,154.810136 160.182942,154.425997 C159.030526,157.114968 156.341554,158.651524 153.652582,160.188079 L146.353945,164.413606 C146.353945,164.413606 138.689992,168.781264 137.641677,169.507286 C139.742532,170.337026 142.896696,171.290074 144.897675,172.096382 C146.818369,172.096382 149.427056,170.175688 150.963611,169.40741 C155.189138,167.102577 160.567081,163.645328 164.792608,160.572218 L171.707106,155.962552 C177.085049,151.737025 182.462992,147.12736 187.456797,142.133555 C191.298185,138.676306 195.139573,135.219057 198.212683,130.99353 C202.43821,125.999726 205.127182,120.237644 208.200292,114.475562 C211.657541,109.097618 212.809958,105.640369 214.730652,99.8782872 C215.11479,97.9575932 216.267207,94.8844828 215.498929,92.9637888 Z M39.1792199,91.0430948 C38.0268035,95.2686216 39.5633587,100.262426 41.0999139,104.103814 C44.5571631,113.323145 50.3192451,121.39006 56.0813271,129.072836 C59.5385763,134.06664 65.3006583,140.212861 69.5261851,144.438388 L74.1358507,148.279776 L84.1234595,157.114968 C92.1903743,163.261189 107.171788,172.48052 116.391119,176.706047 L128.68356,182.08399 L133.677365,184.004684 C139.439447,186.309517 145.201529,187.846072 151.34775,188.998489 C154.804999,189.766766 158.646387,190.919183 162.103636,190.919183 C160.95122,186.693656 158.646387,187.077795 155.189138,185.925378 L142.512557,180.931574 C124.842172,173.632937 105.251094,166.3343 91.4220967,152.505303 C94.1110683,152.505303 96.0317623,154.810136 97.9524563,156.346691 C100.641428,158.267385 104.098677,160.572218 107.171788,162.492912 C115.622841,167.486716 134.829781,176.321908 144.433251,179.779158 C148.274639,181.315713 154.804999,184.004684 158.646387,184.004684 C161.719497,184.388823 165.945024,182.468129 168.249857,180.931574 C166.713302,179.395019 165.176746,179.779158 162.871914,179.395019 L150.963611,175.93777 C140.591863,173.248798 130.604254,169.40741 121.000784,164.413606 L115.622841,162.108773 L108.324204,157.499107 L99.4890115,151.737025 L90.2696803,144.438388 L74.5199895,132.145946 L59.9227151,117.164533 L52.6240779,108.71348 L44.9413019,100.262426 L39.1792199,91.0430948 Z M162.487775,185.925378 C163.256052,187.461934 164.792608,189.766766 164.792608,191.68746 C164.792608,195.912987 159.798803,199.754375 155.957415,199.370236 C154.42086,198.986098 150.963611,197.065404 149.811194,199.370236 C149.427056,200.138514 149.427056,200.906792 149.811194,201.29093 C149.811194,202.827486 151.731888,203.595763 153.268444,204.364041 C157.49397,205.516457 162.103636,203.979902 165.560885,201.675069 C168.249857,200.138514 170.170551,197.449542 170.938828,194.376432 L171.707106,189.382628 C172.091245,187.846072 173.6278,187.461934 175.548494,184.772962 C177.853327,181.699852 180.15816,176.321908 183.23127,174.017076 C184.383686,173.248798 185.536103,172.864659 187.072658,172.48052 C186.30438,171.328104 185.536103,170.559826 184.767825,169.40741 C183.999548,169.023271 183.23127,168.254994 182.462992,168.254994 C181.310576,167.870855 179.774021,167.870855 178.621604,168.639132 C173.243661,171.328104 174.396078,176.321908 171.322967,180.163296 C169.018134,183.236407 166.329163,184.772962 162.487775,185.925378 Z M174.780216,190.919183 C177.469188,192.071599 179.774021,191.68746 182.462992,191.68746 L188.225074,192.071599 C190.914046,192.071599 191.682324,190.535044 192.83474,188.230211 C193.218879,187.461934 193.603018,185.925378 192.83474,185.157101 C192.066462,184.388823 190.529907,184.388823 189.377491,184.388823 L182.847131,184.772962 C181.694715,184.772962 179.774021,184.772962 178.621604,185.157101 C176.70091,186.309517 175.164355,188.998489 174.780216,190.919183 Z M195.523712,196.297126 C193.603018,195.528848 192.450601,194.760571 191.298185,193.224016 C190.914046,193.608154 190.529907,193.608154 190.145768,193.992293 C189.76163,195.912987 194.755434,200.522653 195.523712,196.297126 Z M192.83474,183.236407 L195.90785,185.157101 C195.139573,186.693656 193.218879,189.766766 193.603018,191.68746 C193.987156,195.528848 199.3651,195.528848 201.669932,193.224016 C204.358904,190.150905 204.358904,185.54124 200.517516,183.236407 C198.212683,182.08399 195.523712,182.468129 192.83474,183.236407 Z M54.9289107,193.992293 L55.3130495,194.376432 C58.3861599,193.608154 60.3068539,192.455738 60.6909927,189.382628 C58.3861599,189.766766 56.0813271,192.071599 54.9289107,193.992293 Z M57.6178823,179.779158 C56.4654659,179.01088 55.3130495,178.626741 53.7764943,178.626741 C52.6240779,178.626741 51.4716615,178.626741 50.3192451,179.01088 C46.4778571,180.547435 46.0937183,186.693656 49.1668287,189.382628 C50.7033839,190.919183 54.5447719,191.68746 56.0813271,189.766766 C57.6178823,188.230211 57.2337435,186.309517 56.4654659,184.388823 C56.0813271,183.236407 55.3130495,181.699852 56.0813271,180.931574 C56.4654659,180.163296 57.2337435,180.163296 57.6178823,179.779158 Z M57.2337435,181.315713 C57.6178823,182.468129 59.5385763,187.077795 60.3068539,187.846072 C61.4592703,188.61435 62.6116867,188.61435 63.7641031,188.61435 L70.6786015,188.230211 L75.6724059,188.230211 C75.6724059,187.077795 75.6724059,185.925378 75.2882671,185.157101 C74.1358507,182.08399 69.9103239,180.547435 66.8372135,180.547435 L63.3799643,180.931574 C61.0751315,180.931574 59.1544375,180.547435 57.2337435,181.315713 Z M64.5323807,169.023271 C71.8310179,170.943965 71.8310179,177.090186 74.9041283,181.315713 C76.0565447,182.852268 79.1296551,185.157101 79.5137939,186.693656 C79.8979327,187.846072 79.5137939,188.230211 79.8979327,190.919183 C80.6662103,194.376432 82.9710431,197.833681 86.0441535,199.754375 C89.5014027,202.059208 92.5745131,203.595763 96.8000399,202.443347 C99.1048727,201.675069 101.409706,200.138514 100.257289,197.449542 C99.1048727,194.760571 94.8793459,197.449542 92.1903743,196.681265 C89.5014027,195.528848 86.4282923,191.68746 86.4282923,188.61435 L87.9648475,183.236407 C83.7393207,181.699852 78.7455163,178.242602 76.8248223,174.017076 C75.6724059,171.328104 75.6724059,167.486716 73.7517119,165.566022 C70.2944627,162.87705 65.6847971,165.181883 64.5323807,169.023271 Z M82.9710431,177.858464 C84.1234595,179.395019 84.8917371,179.779158 86.4282923,180.547435 C91.8062355,183.620546 95.2634847,181.315713 100.641428,180.163296 L111.781453,176.706047 C110.30636,175.714969 107.010449,173.652144 105.635232,172.864659 L98.3365951,174.785353 L82.9710431,177.858464 Z M88.3489863,188.998489 C98.3365951,188.998489 107.555926,185.925378 117.159396,183.620546 C117.159396,183.620546 121.384923,181.620719 122.797017,181.620719 C121.464056,180.649232 116.027723,178.686667 115.17724,177.919926 C114.024824,178.261809 109.47662,179.779158 107.940065,180.163296 L98.3365951,182.852268 L93.7269295,184.004684 C91.0379579,185.157101 89.1172639,185.54124 88.3489863,188.998489 Z" stroke="#000000" fill="#FFFFFF"></path>
		<path d="M128.803588,136.09668 C153.790026,136.09668 174.045536,115.84117 174.045536,90.8547324 C174.045536,65.8682949 153.790026,45.6127852 128.803588,45.6127852 C103.817151,45.6127852 83.5616412,65.8682949 83.5616412,90.8547324 C83.5616412,115.84117 103.817151,136.09668 128.803588,136.09668 L128.803588,136.09668 Z M128.803588,128.413904 C108.060231,128.413904 91.2444172,111.59809 91.2444172,90.8547324 C91.2444172,70.1113749 108.060231,53.2955612 128.803588,53.2955612 C149.546946,53.2955612 166.36276,70.1113749 166.36276,90.8547324 C166.36276,111.59809 149.546946,128.413904 128.803588,128.413904 L128.803588,128.413904 Z M128.465546,64.9795269 C116.20422,64.9795269 105.930812,73.5193166 103.266809,84.9739515 L115.631085,84.9739515 C117.862163,80.1153639 122.772225,76.7410887 128.465546,76.7410887 C136.256649,76.7410887 142.579574,83.0640134 142.579574,90.8547324 C142.579574,98.6454514 136.256649,104.96876 128.465546,104.96876 C122.772225,104.96876 117.861779,101.594101 115.631085,96.7355133 L103.266809,96.7355133 C105.930812,108.190148 116.20422,116.729938 128.465546,116.729938 C142.748979,116.729938 154.340752,105.137781 154.340752,90.8547324 C154.340752,76.5716835 142.748595,64.9795269 128.465546,64.9795269 L128.465546,64.9795269 Z" fill="#FFFFFF"></path>
	</g>
</svg>
